X: 1
T: Launching The Boat
R: reel
M: 4/4
L: 1/8
K: Dmaj
d2fd AGFA|B~E3 BAFA|d2fd AGFD|~E3F GABc|
d2fd AGFA|B~E3 BAFG|A2FA DAFD|1EDCE FDDA:|2EDCE FDde|
|:f~d3 fdgd|fAde fagf|eggf ~g3f|efga bgag|
|f~d3 edBc|defd AGFG|A2FA DAFD|1EDCE FDde:|2EDCE FDDA||


Tune 267	Setting 21814

